ui/StatusQ/src/assets/img/icons/homepage/feed.svg

<svg fill="none" height="24" viewBox="0 0 24 24" width="24" xmlns="http://www.w3.org/2000/svg"><path clip-rule="evenodd" d="m11.9998 3.19976c-4.8601 0-8.8 3.93989-8.8 8.80004 0 1.8038.54275 3.4809 1.47384 4.8768-.24266-.7485-.37379-1.5473-.37379-2.3766 0-4.2526 3.44741-7.70005 7.70005-7.70005 4.2525 0 7.7 3.44745 7.7 7.70005 0 .8292-.1311 1.6279-.3737 2.3763.9309-1.3958 1.4736-3.0728 1.4736-4.8765 0-4.86015-3.9399-8.80004-8.8-8.80004zm5.0418 15.07854c.1033-.409.1583-.8372.1583-1.2783 0-2.8719-2.3282-5.2-5.2-5.2-2.87193 0-5.20004 2.3281-5.20004 5.2 0 .4411.05492.8693.1583 1.2783-.79014-1.0526-1.2583-2.3608-1.2583-3.7783 0-3.4794 2.8206-6.30005 6.30004-6.30005 3.4793 0 6.3 2.82065 6.3 6.30005 0 1.4175-.4682 2.7257-1.2583 3.7783zm-5.0933 2.5213c-2.07492-.0276-3.74845-1.7182-3.74845-3.7996 0-2.0987 1.70132-3.8 3.80005-3.8 2.0986 0 3.8 1.7013 3.8 3.8 0 2.0814-1.6736 3.772-3.7485 3.7996-.0172.0001-.0344.0002-.0516.0002s-.0343-.0001-.0515-.0002zm.0516 1.4004c.0363 0 .0726-.0003.1088-.0008 5.5831-.0584 10.0911-4.6025 10.0911-10.1994 0-5.63335-4.5667-10.20004-10.2-10.20004s-10.2 4.56669-10.2 10.20004c0 5.597 4.50803 10.1411 10.0912 10.1994.0362.0005.0725.0008.1089.0008z" fill="#09101c" fill-rule="evenodd"/></svg>

<svg width="24" height="24" viewBox="0 0 24 24" fill="none" xmlns="http://www.w3.org/2000/svg">
<g id="24/feed">
<path id="body" fill-rule="evenodd" clip-rule="evenodd" d="M11.9998 3.19976C7.1397 3.19976 3.1998 7.13965 3.1998 11.9998C3.1998 13.8036 3.74255 15.4807 4.67364 16.8766C4.43098 16.1281 4.29985 15.3293 4.29985 14.5C4.29985 10.2474 7.74726 6.79995 11.9999 6.79995C16.2524 6.79995 19.6999 10.2474 19.6999 14.5C19.6999 15.3292 19.5688 16.1279 19.3262 16.8763C20.2571 15.4805 20.7998 13.8035 20.7998 11.9998C20.7998 7.13965 16.8599 3.19976 11.9998 3.19976ZM17.0416 18.2783C17.1449 17.8693 17.1999 17.4411 17.1999 17C17.1999 14.1281 14.8717 11.8 11.9999 11.8C9.12797 11.8 6.79986 14.1281 6.79986 17C6.79986 17.4411 6.85478 17.8693 6.95816 18.2783C6.16802 17.2257 5.69986 15.9175 5.69986 14.5C5.69986 11.0206 8.52046 8.19995 11.9999 8.19995C15.4792 8.19995 18.2999 11.0206 18.2999 14.5C18.2999 15.9175 17.8317 17.2257 17.0416 18.2783ZM11.9483 20.7996C9.87338 20.772 8.19985 19.0814 8.19985 17C8.19985 14.9013 9.90117 13.2 11.9999 13.2C14.0985 13.2 15.7999 14.9013 15.7999 17C15.7999 19.0814 14.1263 20.772 12.0514 20.7996C12.0342 20.7997 12.017 20.7998 11.9998 20.7998C11.9826 20.7998 11.9655 20.7997 11.9483 20.7996ZM11.9999 22.2C12.0362 22.2 12.0725 22.1997 12.1087 22.1992C17.6918 22.1408 22.1998 17.5967 22.1998 11.9998C22.1998 6.36645 17.6331 1.79976 11.9998 1.79976C6.3665 1.79976 1.7998 6.36645 1.7998 11.9998C1.7998 17.5968 6.30783 22.1409 11.891 22.1992C11.9272 22.1997 11.9635 22.2 11.9999 22.2Z" fill="#09101C"/>
</g>
</svg>
